app/img/svg/contacts/telegram.svg

<?xml version="1.0" encoding="UTF-8"?>
<svg xmlns="http://www.w3.org/2000/svg" xmlns:xlink="http://www.w3.org/1999/xlink" width="31px" height="35px" viewBox="0 0 31 35" version="1.1">
	<g id="surface1">
		<path style=" stroke:none;fill-rule:nonzero;fill:rgb(0%,0%,0%);fill-opacity:1;" d="M 30.910156 6.742188 L 26.230469 28.53125 C 25.878906 30.070312 24.960938 30.453125 23.652344 29.730469 L 16.523438 24.539062 L 13.085938 27.808594 C 12.703125 28.183594 12.386719 28.5 11.652344 28.5 L 12.164062 21.328125 L 25.375 9.535156 C 25.949219 9.03125 25.25 8.75 24.480469 9.257812 L 8.152344 19.414062 L 1.121094 17.242188 C -0.410156 16.769531 -0.4375 15.730469 1.4375 15.003906 L 28.9375 4.539062 C 30.210938 4.066406 31.324219 4.820312 30.910156 6.742188 Z M 30.910156 6.742188 " />
	</g>
</svg>

<svg xmlns="http://www.w3.org/2000/svg" width="31" height="35"><path d="M30.91 6.742l-4.68 21.79c-.351 1.538-1.27 1.921-2.578 1.198l-7.129-5.19-3.437 3.269c-.383.375-.7.691-1.434.691l.512-7.172L25.375 9.535c.574-.504-.125-.785-.895-.277L8.152 19.414l-7.03-2.172c-1.532-.472-1.56-1.512.315-2.238l27.5-10.465c1.274-.473 2.387.281 1.973 2.203zm0 0" id="surface1"/></svg>
